X:1
T: Because He was a Bonnie Lad
C:
R:Strathspey
Q:128
K:D
M:4/4
L:1/16
|:A2|F3E D3d Bcd2 A3F|G3B A3F EEE2 E3A|F3E D3d Bcd2 A3F|G3B A3F DDD2 D3A|
F3E D3d ((3B2d2B2) ((3A2B2A2)|G3B A3F EEE2 E2A2|F3E D3d ((3B2d2B2) ((3A2B2A2)|G3B A3F DDD2 D2A2|
F3E D3F G3A B3G|F3D A3F EEE2 E2A2|F3E D3F G3A B3c|dcBA d3A FD3 D2A2|
FD3 A3D B3D Ad3|FD3 A3F EEE2 E2Bc|d3B c3A B3G A3F|G3B A3F DDD2 D2:|
